dist/img/header/logo-white.svg

<svg width="69" height="40" viewBox="0 0 69 40" fill="none" xmlns="http://www.w3.org/2000/svg">
<path d="M14.0243 15.7053H12.482V30.1033H14.0243V15.7053ZM11.5283 15.7053H9.98415V30.1033H11.5283V15.7053ZM11.5283 15.7053H9.98415V30.1033H11.5283V15.7053ZM9.03046 15.7053H7.48812V30.1033H9.03046V15.7053ZM14.0243 0.328125H7.48812V14.7263H14.0243V0.328125ZM6.53442 0.328125H0V30.1033H6.53442V0.328125ZM64.8381 36.4656L62.8431 33.3936H64.4873L65.7646 35.4299L67.0335 33.3936H68.5219L66.5396 36.3572L68.735 39.6941H67.08L65.6485 37.4175L64.1812 39.6941H62.7035L64.8381 36.4656ZM61.1665 36.5861V36.5018C61.1665 35.2006 60.5331 34.4055 59.4754 34.4055C58.42 34.4055 57.7738 35.1886 57.7738 36.4898V36.5861C57.7738 37.8751 58.3965 38.6821 59.4754 38.6821C60.5331 38.6821 61.1665 37.8751 61.1665 36.5861ZM56.3192 36.6102V36.5139C56.3192 34.5621 57.6685 33.2608 59.4754 33.2608C61.2719 33.2608 62.6212 34.55 62.6212 36.4777V36.5742C62.6212 38.5375 61.2719 39.8148 59.4646 39.8148C57.6577 39.8148 56.3192 38.5256 56.3192 36.6102ZM53.9808 36.5861V36.4898C53.9808 35.0921 53.2773 34.4055 52.3488 34.4055C51.3646 34.4055 50.6596 35.0921 50.6596 36.4898V36.5861C50.6596 37.9956 51.3288 38.6583 52.3612 38.6583C53.4062 38.6583 53.9808 37.9354 53.9808 36.5861ZM50.7062 38.6821V39.6941H49.2873V30.4784H50.7062V34.4055C51.0481 33.8033 51.8104 33.2608 52.7138 33.2608C54.2508 33.2608 55.4354 34.4295 55.4354 36.4656V36.562C55.4354 38.586 54.2973 39.8148 52.7138 39.8148C51.7388 39.8148 51.0354 39.3206 50.7062 38.6821ZM46.4712 37.4895V36.8629H45.7427C44.6638 36.8629 43.9715 37.1163 43.9715 37.887C43.9715 38.4176 44.2523 38.7668 44.9573 38.7668C45.825 38.7668 46.4712 38.2967 46.4712 37.4895ZM42.5631 37.9473C42.5631 36.4777 43.9481 35.9476 45.7088 35.9476H46.4712V35.6224C46.4712 34.7789 46.1885 34.3575 45.3562 34.3575C44.6173 34.3575 44.2523 34.7186 44.1827 35.3452H42.81C42.9265 33.8753 44.0662 33.2608 45.4385 33.2608C46.8112 33.2608 47.89 33.8391 47.89 35.562V39.6941H46.4942V38.9233C46.0954 39.4652 45.555 39.8148 44.6173 39.8148C43.49 39.8148 42.5631 39.2606 42.5631 37.9473ZM32.3555 33.3936H33.7743V34.3575C34.0678 33.7671 34.737 33.2608 35.6406 33.2608C36.4386 33.2608 37.072 33.6106 37.3779 34.3937C37.8467 33.6106 38.6912 33.2608 39.4535 33.2608C40.5808 33.2608 41.495 33.9719 41.495 35.7066V39.6941H40.0762V35.803C40.0762 34.8753 39.6896 34.478 38.9846 34.478C38.2815 34.478 37.6356 34.9596 37.6356 35.9235V39.6941H36.2149V35.803C36.2149 34.8753 35.8159 34.478 35.1235 34.478C34.4203 34.478 33.7743 34.9596 33.7743 35.9235V39.6941H32.3555V33.3936ZM27.9306 33.3936H29.3513V34.5745C29.7377 33.7792 30.3139 33.3093 31.3463 33.2972V34.6588C30.1028 34.6705 29.3513 35.0801 29.3513 36.4175V39.6941H27.9306V33.3936ZM25.3504 36.5861V36.5018C25.3504 35.2006 24.717 34.4055 23.6596 34.4055C22.6039 34.4055 21.9598 35.1886 21.9598 36.4898V36.5861C21.9598 37.8751 22.5807 38.6821 23.6596 38.6821C24.717 38.6821 25.3504 37.8751 25.3504 36.5861ZM20.5033 36.6102V36.5139C20.5033 34.5621 21.8524 33.2608 23.6596 33.2608C25.456 33.2608 26.8051 34.55 26.8051 36.4777V36.5742C26.8051 38.5375 25.456 39.8148 23.6488 39.8148C21.8417 39.8148 20.5033 38.5256 20.5033 36.6102ZM14.9744 31.0807H20.1723V32.3576H16.5347V34.9238H19.3975V36.1645H16.5347V39.6941H14.9744V31.0807Z" fill="white"/>
</svg>

<svg width="69" height="40" fill="none" xmlns="http://www.w3.org/2000/svg"><path d="M14.024 15.705h-1.542v14.398h1.542V15.705Zm-2.496 0H9.984v14.398h1.544V15.705Zm0 0H9.984v14.398h1.544V15.705Zm-2.498 0H7.488v14.398H9.03V15.705ZM14.024.328H7.488v14.398h6.536V.328Zm-7.49 0H0v29.775h6.534V.328Zm58.304 36.138-1.995-3.072h1.644l1.278 2.036 1.269-2.036h1.488l-1.982 2.963 2.195 3.337H67.08l-1.431-2.277-1.468 2.277h-1.477l2.134-3.228Zm-3.671.12v-.084c0-1.301-.634-2.096-1.692-2.096-1.055 0-1.701.783-1.701 2.084v.096c0 1.29.623 2.096 1.701 2.096 1.058 0 1.691-.807 1.691-2.096Zm-4.848.024v-.096c0-1.952 1.35-3.253 3.156-3.253 1.797 0 3.146 1.289 3.146 3.217v.096c0 1.964-1.35 3.24-3.156 3.24-1.807 0-3.146-1.288-3.146-3.204Zm-2.338-.024v-.096c0-1.398-.704-2.084-1.632-2.084-.984 0-1.69.686-1.69 2.084v.096c0 1.41.67 2.072 1.702 2.072 1.045 0 1.62-.723 1.62-2.072Zm-3.275 2.096v1.012h-1.419v-9.216h1.42v3.928c.341-.603 1.103-1.145 2.007-1.145 1.537 0 2.721 1.168 2.721 3.205v.096c0 2.024-1.138 3.253-2.721 3.253-.975 0-1.679-.494-2.008-1.133Zm-4.235-1.193v-.626h-.728c-1.08 0-1.772.253-1.772 1.024 0 .53.281.88.986.88.868 0 1.514-.47 1.514-1.278Zm-3.908.458c0-1.47 1.385-2 3.146-2h.762v-.325c0-.843-.282-1.264-1.115-1.264-.739 0-1.104.36-1.173.987H42.81c.116-1.47 1.256-2.084 2.628-2.084 1.373 0 2.452.578 2.452 2.301v4.132h-1.396v-.77c-.399.541-.939.89-1.877.89-1.127 0-2.054-.553-2.054-1.867Zm-10.208-4.553h1.42v.964c.293-.59.962-1.097 1.866-1.097.798 0 1.431.35 1.737 1.133.469-.783 1.313-1.133 2.075-1.133 1.128 0 2.042.71 2.042 2.446v3.987h-1.419v-3.891c0-.928-.386-1.325-1.091-1.325-.703 0-1.35.482-1.35 1.445v3.771h-1.42v-3.891c0-.928-.4-1.325-1.092-1.325-.703 0-1.349.482-1.349 1.445v3.771h-1.419v-6.3Zm-4.424 0h1.42v1.18c.387-.795.963-1.265 1.995-1.277v1.362c-1.243.011-1.995.421-1.995 1.758v3.277h-1.42v-6.3Zm-2.58 3.192v-.084c0-1.301-.634-2.096-1.691-2.096-1.056 0-1.7.783-1.7 2.084v.096c0 1.29.62 2.096 1.7 2.096 1.057 0 1.69-.807 1.69-2.096Zm-4.848.024v-.096c0-1.952 1.35-3.253 3.157-3.253 1.796 0 3.145 1.289 3.145 3.217v.096c0 1.964-1.349 3.24-3.156 3.24-1.807 0-3.146-1.288-3.146-3.204Zm-5.529-5.53h5.198v1.278h-3.637v2.566h2.863v1.24h-2.863v3.53h-1.56v-8.613Z" fill="#fff"/></svg>
